!!!OTL@@FUR: Anin a nolis
!!!OTL@IT: Andiamo, andiamo a nocciuole
!!!OTL@EN: Let's go find nuts
**kern
*clefG2
*k[]
*C:
*M2/4
*MM110
*>[A]
*>A
16e
=1
8.g
16g
8.a
16a
=2
4g
8.e
16e
=3
8.g
16g
8.a
16a
=4
4g
8.r
16e
=5
8.g
16g
8.a
16g
=6
4b
8.b
16a
=7
12g
12a
12g
8.f
16f
=8
[4e
8e]
16r
==
*-
!!!ARE: Friuli
!!!ENC: Kelly Leistikow
!!!END: 2002/02/07
!!!ref: @{OTL@@FUR}/@{OTL@EN}
